badges/sonnet-dark.svg

<svg width="106" height="40" viewBox="0 0 106 40" fill="none" xmlns="http://www.w3.org/2000/svg">
<rect x="0.5" y="0.5" width="105" height="39" rx="4.5" fill="black"/>
<g clip-path="url(#clip0_101_8005)">
<path d="M10.5 29.5C8.65 27.65 8 24.65 8 20C8 15.35 8.7 12.35 10.5 10.5C12.3 8.65 15.35 8 20 8C24.65 8 27.65 8.7 29.5 10.5C31.35 12.3 32 15.35 32 20C32 24.65 31.3 27.65 29.5 29.5C27.7 31.35 24.65 32 20 32C15.35 32 12.35 31.3 10.5 29.5Z" fill="#004A93"/>
<path d="M20 29.5C25.2467 29.5 29.5 25.2467 29.5 20C29.5 14.7533 25.2467 10.5 20 10.5C14.7533 10.5 10.5 14.7533 10.5 20C10.5 25.2467 14.7533 29.5 20 29.5Z" fill="#FFCE00"/>
<path d="M22.5 13.05C22.4 13 22.25 13 22.15 13.05C22.05 13.1 21.95 13.2 21.9 13.3C21.85 13.4 21.85 13.55 21.9 13.65C21.95 13.75 22.05 13.85 22.15 13.9C24.55 14.9 26.1 17.2 26.1 19.8C26.1 23.35 23.25 26.2 19.7 26.2C19.45 26.2 19.2 26.4 19.2 26.7C19.2 27 19.4 27.2 19.7 27.2C23.75 27.2 27.05 23.9 27.05 19.85C27.05 16.85 25.3 14.2 22.5 13.05Z" fill="#004A93"/>
<path d="M19.7 24.65C22.35 24.65 24.55 22.5 24.55 19.8C24.55 17.1 22.4 15 19.7 15C19.45 15 19.2 15.2 19.2 15.5C19.2 15.75 19.4 16 19.7 16C21.85 16 23.55 17.75 23.55 19.85C23.55 21.95 21.8 23.7 19.7 23.7C19.45 23.7 19.2 23.9 19.2 24.2C19.25 24.45 19.45 24.65 19.7 24.65Z" fill="#004A93"/>
<path d="M20.7 20.95C20.6 21.05 20.55 21.15 20.55 21.3C20.55 21.45 20.6 21.55 20.7 21.65C20.8 21.75 20.9 21.8 21.05 21.8C21.15 21.8 21.3 21.75 21.35 21.65C21.85 21.2 22.1 20.55 22.1 19.9C22.1 18.55 21 17.45 19.7 17.45C19.45 17.45 19.2 17.65 19.2 17.95C19.2 18.25 19.4 18.45 19.7 18.45C20.5 18.45 21.15 19.1 21.15 19.9C21.2 20.25 21.05 20.65 20.7 20.95Z" fill="#004A93"/>
</g>
<path d="M39.7486 14.5V8.31818H40.4972V13.8359H43.3707V14.5H39.7486ZM44.4332 14.5V9.86364H45.1456V14.5H44.4332ZM44.7955 9.09091C44.6566 9.09091 44.5369 9.04362 44.4363 8.94904C44.3377 8.85446 44.2884 8.74077 44.2884 8.60795C44.2884 8.47514 44.3377 8.36145 44.4363 8.26687C44.5369 8.17229 44.6566 8.125 44.7955 8.125C44.9343 8.125 45.053 8.17229 45.1516 8.26687C45.2522 8.36145 45.3026 8.47514 45.3026 8.60795C45.3026 8.74077 45.2522 8.85446 45.1516 8.94904C45.053 9.04362 44.9343 9.09091 44.7955 9.09091ZM49.7344 10.902L49.0945 11.0831C49.0543 10.9764 48.9949 10.8728 48.9164 10.7722C48.8399 10.6696 48.7353 10.585 48.6025 10.5186C48.4697 10.4522 48.2996 10.419 48.0924 10.419C47.8086 10.419 47.5722 10.4844 47.383 10.6152C47.1959 10.744 47.1023 10.908 47.1023 11.1072C47.1023 11.2843 47.1667 11.4242 47.2955 11.5268C47.4243 11.6294 47.6255 11.715 47.8992 11.7834L48.5874 11.9524C49.0019 12.053 49.3108 12.207 49.5141 12.4142C49.7173 12.6195 49.8189 12.8841 49.8189 13.2081C49.8189 13.4737 49.7425 13.7112 49.5895 13.9205C49.4386 14.1297 49.2273 14.2947 48.9557 14.4155C48.684 14.5362 48.3681 14.5966 48.0079 14.5966C47.535 14.5966 47.1436 14.494 46.8337 14.2887C46.5238 14.0835 46.3276 13.7836 46.2451 13.3892L46.9212 13.2202C46.9856 13.4697 47.1073 13.6568 47.2864 13.7816C47.4676 13.9064 47.704 13.9688 47.9958 13.9688C48.3278 13.9688 48.5914 13.8983 48.7866 13.7575C48.9838 13.6146 49.0824 13.4435 49.0824 13.2443C49.0824 13.0833 49.0261 12.9485 48.9134 12.8398C48.8007 12.7292 48.6276 12.6467 48.3942 12.5923L47.6215 12.4112C47.1969 12.3106 46.885 12.1547 46.6858 11.9434C46.4886 11.7301 46.39 11.4634 46.39 11.1435C46.39 10.8819 46.4634 10.6504 46.6103 10.4492C46.7592 10.248 46.9615 10.09 47.217 9.97532C47.4746 9.86062 47.7664 9.80327 48.0924 9.80327C48.5512 9.80327 48.9114 9.90388 49.173 10.1051C49.4366 10.3063 49.6237 10.572 49.7344 10.902ZM52.9076 9.86364V10.4673H50.5049V9.86364H52.9076ZM51.2052 8.75284H51.9175V13.1719C51.9175 13.3731 51.9467 13.524 52.0051 13.6246C52.0654 13.7232 52.1419 13.7897 52.2345 13.8239C52.329 13.8561 52.4287 13.8722 52.5333 13.8722C52.6118 13.8722 52.6762 13.8681 52.7265 13.8601C52.7768 13.85 52.817 13.842 52.8472 13.8359L52.9921 14.4759C52.9438 14.494 52.8764 14.5121 52.7899 14.5302C52.7033 14.5503 52.5937 14.5604 52.4608 14.5604C52.2596 14.5604 52.0624 14.5171 51.8692 14.4306C51.6781 14.344 51.5191 14.2122 51.3923 14.0352C51.2675 13.8581 51.2052 13.6347 51.2052 13.3651V8.75284ZM55.8732 14.5966C55.4265 14.5966 55.0411 14.498 54.7172 14.3008C54.3952 14.1016 54.1467 13.8239 53.9716 13.4677C53.7985 13.1095 53.712 12.6929 53.712 12.218C53.712 11.7431 53.7985 11.3246 53.9716 10.9624C54.1467 10.5981 54.3902 10.3144 54.7021 10.1112C55.016 9.90589 55.3822 9.80327 55.8008 9.80327C56.0423 9.80327 56.2807 9.84351 56.5162 9.92401C56.7516 10.0045 56.9659 10.1353 57.1591 10.3164C57.3523 10.4955 57.5062 10.733 57.6209 11.0288C57.7356 11.3246 57.793 11.6888 57.793 12.1214V12.4233H54.2191V11.8075H57.0685C57.0685 11.5459 57.0162 11.3125 56.9116 11.1072C56.8089 10.902 56.6621 10.74 56.4709 10.6213C56.2817 10.5025 56.0584 10.4432 55.8008 10.4432C55.517 10.4432 55.2715 10.5136 55.0643 10.6545C54.859 10.7933 54.7011 10.9744 54.5904 11.1978C54.4797 11.4212 54.4244 11.6606 54.4244 11.9162V12.3267C54.4244 12.6768 54.4847 12.9737 54.6055 13.2172C54.7282 13.4586 54.8983 13.6428 55.1156 13.7695C55.3329 13.8943 55.5855 13.9567 55.8732 13.9567C56.0604 13.9567 56.2294 13.9305 56.3803 13.8782C56.5333 13.8239 56.6651 13.7434 56.7757 13.6367C56.8864 13.5281 56.9719 13.3932 57.0323 13.2322L57.7205 13.4254C57.6481 13.6589 57.5263 13.8641 57.3553 14.0412C57.1842 14.2163 56.973 14.3531 56.7214 14.4517C56.4699 14.5483 56.1871 14.5966 55.8732 14.5966ZM59.589 11.7109V14.5H58.8766V9.86364H59.5648V10.5881H59.6252C59.7338 10.3526 59.8989 10.1635 60.1202 10.0206C60.3416 9.87571 60.6273 9.80327 60.9775 9.80327C61.2914 9.80327 61.5661 9.86766 61.8015 9.99645C62.0369 10.1232 62.2201 10.3164 62.3509 10.576C62.4817 10.8336 62.5471 11.1596 62.5471 11.554V14.5H61.8347V11.6023C61.8347 11.238 61.7401 10.9543 61.551 10.7511C61.3618 10.5458 61.1022 10.4432 60.7722 10.4432C60.5448 10.4432 60.3416 10.4925 60.1625 10.5911C59.9854 10.6897 59.8455 10.8336 59.7429 11.0227C59.6403 11.2119 59.589 11.4413 59.589 11.7109ZM68.1229 14.5966C67.7044 14.5966 67.3371 14.497 67.0212 14.2978C66.7073 14.0985 66.4618 13.8198 66.2847 13.4616C66.1096 13.1035 66.0221 12.6849 66.0221 12.206C66.0221 11.723 66.1096 11.3014 66.2847 10.9412C66.4618 10.581 66.7073 10.3013 67.0212 10.1021C67.3371 9.90288 67.7044 9.80327 68.1229 9.80327C68.5415 9.80327 68.9077 9.90288 69.2216 10.1021C69.5376 10.3013 69.7831 10.581 69.9581 10.9412C70.1352 11.3014 70.2238 11.723 70.2238 12.206C70.2238 12.6849 70.1352 13.1035 69.9581 13.4616C69.7831 13.8198 69.5376 14.0985 69.2216 14.2978C68.9077 14.497 68.5415 14.5966 68.1229 14.5966ZM68.1229 13.9567C68.4409 13.9567 68.7025 13.8752 68.9077 13.7122C69.113 13.5492 69.2649 13.3349 69.3635 13.0692C69.4621 12.8036 69.5114 12.5159 69.5114 12.206C69.5114 11.8961 69.4621 11.6073 69.3635 11.3397C69.2649 11.072 69.113 10.8557 68.9077 10.6907C68.7025 10.5257 68.4409 10.4432 68.1229 10.4432C67.805 10.4432 67.5434 10.5257 67.3381 10.6907C67.1329 10.8557 66.9809 11.072 66.8823 11.3397C66.7837 11.6073 66.7344 11.8961 66.7344 12.206C66.7344 12.5159 66.7837 12.8036 66.8823 13.0692C66.9809 13.3349 67.1329 13.5492 67.3381 13.7122C67.5434 13.8752 67.805 13.9567 68.1229 13.9567ZM72.0235 11.7109V14.5H71.3112V9.86364H71.9994V10.5881H72.0597C72.1684 10.3526 72.3334 10.1635 72.5548 10.0206C72.7761 9.87571 73.0619 9.80327 73.412 9.80327C73.7259 9.80327 74.0006 9.86766 74.2361 9.99645C74.4715 10.1232 74.6546 10.3164 74.7854 10.576C74.9162 10.8336 74.9816 11.1596 74.9816 11.554V14.5H74.2693V11.6023C74.2693 11.238 74.1747 10.9543 73.9855 10.7511C73.7964 10.5458 73.5368 10.4432 73.2068 10.4432C72.9794 10.4432 72.7761 10.4925 72.597 10.5911C72.42 10.6897 72.2801 10.8336 72.1775 11.0227C72.0748 11.2119 72.0235 11.4413 72.0235 11.7109Z" fill="white"/>
<path d="M46.5014 20.9545C46.4268 20.3248 46.1244 19.8359 45.5941 19.4879C45.0638 19.1399 44.4134 18.9659 43.6428 18.9659C43.0793 18.9659 42.5863 19.0571 42.1637 19.2393C41.7453 19.4216 41.418 19.6723 41.1818 19.9913C40.9498 20.3103 40.8338 20.6728 40.8338 21.0788C40.8338 21.4186 40.9146 21.7106 41.0762 21.9551C41.2419 22.1954 41.4532 22.3963 41.71 22.5579C41.9669 22.7153 42.2362 22.8458 42.5179 22.9494C42.7997 23.0488 43.0586 23.1296 43.2947 23.1918L44.5874 23.5398C44.9188 23.6268 45.2875 23.7469 45.6935 23.9002C46.1037 24.0535 46.4952 24.2627 46.8681 24.5279C47.2451 24.7889 47.5558 25.1245 47.8002 25.5346C48.0447 25.9448 48.1669 26.4482 48.1669 27.0447C48.1669 27.7325 47.9867 28.3539 47.6262 28.9091C47.2699 29.4643 46.7479 29.9055 46.0602 30.2328C45.3766 30.5601 44.5459 30.7237 43.5682 30.7237C42.6567 30.7237 41.8675 30.5766 41.2005 30.2825C40.5376 29.9883 40.0156 29.5782 39.6344 29.052C39.2574 28.5259 39.044 27.9148 38.9943 27.2188H40.5852C40.6267 27.6993 40.7882 28.0971 41.07 28.4119C41.3558 28.7227 41.7163 28.9547 42.1513 29.108C42.5904 29.2571 43.0627 29.3317 43.5682 29.3317C44.1565 29.3317 44.6847 29.2364 45.1529 29.0458C45.621 28.8511 45.9918 28.5818 46.2653 28.2379C46.5387 27.8899 46.6754 27.4839 46.6754 27.0199C46.6754 26.5973 46.5574 26.2534 46.3212 25.9883C46.085 25.7231 45.7743 25.5077 45.389 25.342C45.0037 25.1763 44.5874 25.0312 44.1399 24.907L42.5739 24.4595C41.5795 24.1737 40.7924 23.7656 40.2124 23.2353C39.6323 22.705 39.3423 22.011 39.3423 21.1534C39.3423 20.4408 39.535 19.8194 39.9203 19.2891C40.3097 18.7546 40.8317 18.3403 41.4863 18.0462C42.1451 17.7479 42.8804 17.5987 43.6925 17.5987C44.5128 17.5987 45.242 17.7458 45.88 18.0399C46.518 18.33 47.0234 18.7277 47.3963 19.2331C47.7733 19.7386 47.9722 20.3124 47.9929 20.9545H46.5014ZM54.1298 30.6989C53.2681 30.6989 52.512 30.4938 51.8616 30.0836C51.2152 29.6735 50.7098 29.0997 50.3452 28.3622C49.9848 27.6248 49.8046 26.763 49.8046 25.777C49.8046 24.7827 49.9848 23.9147 50.3452 23.1731C50.7098 22.4315 51.2152 21.8556 51.8616 21.4455C52.512 21.0353 53.2681 20.8303 54.1298 20.8303C54.9916 20.8303 55.7456 21.0353 56.3919 21.4455C57.0424 21.8556 57.5478 22.4315 57.9082 23.1731C58.2728 23.9147 58.4551 24.7827 58.4551 25.777C58.4551 26.763 58.2728 27.6248 57.9082 28.3622C57.5478 29.0997 57.0424 29.6735 56.3919 30.0836C55.7456 30.4938 54.9916 30.6989 54.1298 30.6989ZM54.1298 29.3814C54.7844 29.3814 55.323 29.2136 55.7456 28.878C56.1682 28.5424 56.481 28.1012 56.684 27.5543C56.887 27.0075 56.9885 26.415 56.9885 25.777C56.9885 25.139 56.887 24.5444 56.684 23.9934C56.481 23.4424 56.1682 22.997 55.7456 22.6573C55.323 22.3176 54.7844 22.1477 54.1298 22.1477C53.4752 22.1477 52.9367 22.3176 52.5141 22.6573C52.0915 22.997 51.7787 23.4424 51.5757 23.9934C51.3727 24.5444 51.2712 25.139 51.2712 25.777C51.2712 26.415 51.3727 27.0075 51.5757 27.5543C51.7787 28.1012 52.0915 28.5424 52.5141 28.878C52.9367 29.2136 53.4752 29.3814 54.1298 29.3814ZM61.9105 24.7578V30.5H60.4439V20.9545H61.8608V22.446H61.9851C62.2088 21.9613 62.5485 21.5719 63.0043 21.2777C63.46 20.9794 64.0483 20.8303 64.7692 20.8303C65.4155 20.8303 65.981 20.9628 66.4657 21.228C66.9505 21.489 67.3275 21.8867 67.5968 22.4212C67.8661 22.9515 68.0007 23.6226 68.0007 24.4347V30.5H66.5341V24.5341C66.5341 23.7842 66.3394 23.2 65.9499 22.7816C65.5605 22.359 65.026 22.1477 64.3466 22.1477C63.8784 22.1477 63.46 22.2492 63.0913 22.4522C62.7267 22.6552 62.4387 22.9515 62.2275 23.3409C62.0162 23.7303 61.9105 24.2027 61.9105 24.7578ZM71.8973 24.7578V30.5H70.4307V20.9545H71.8476V22.446H71.9719C72.1956 21.9613 72.5353 21.5719 72.9911 21.2777C73.4468 20.9794 74.0351 20.8303 74.756 20.8303C75.4023 20.8303 75.9678 20.9628 76.4525 21.228C76.9373 21.489 77.3143 21.8867 77.5836 22.4212C77.8529 22.9515 77.9875 23.6226 77.9875 24.4347V30.5H76.5209V24.5341C76.5209 23.7842 76.3262 23.2 75.9367 22.7816C75.5473 22.359 75.0129 22.1477 74.3334 22.1477C73.8652 22.1477 73.4468 22.2492 73.0781 22.4522C72.7135 22.6552 72.4256 22.9515 72.2143 23.3409C72.003 23.7303 71.8973 24.2027 71.8973 24.7578ZM84.4197 30.6989C83.4999 30.6989 82.7065 30.4959 82.0395 30.0898C81.3766 29.6797 80.865 29.108 80.5045 28.3746C80.1482 27.6372 79.9701 26.7796 79.9701 25.8018C79.9701 24.8241 80.1482 23.9624 80.5045 23.2166C80.865 22.4667 81.3663 21.8826 82.0084 21.4641C82.6547 21.0415 83.4088 20.8303 84.2705 20.8303C84.7677 20.8303 85.2586 20.9131 85.7433 21.0788C86.2281 21.2446 86.6693 21.5138 87.067 21.8867C87.4648 22.2554 87.7817 22.7443 88.0178 23.3533C88.254 23.9624 88.3721 24.7122 88.3721 25.603V26.2244H81.0141V24.9567H86.8806C86.8806 24.4181 86.7729 23.9375 86.5574 23.5149C86.3461 23.0923 86.0437 22.7588 85.6501 22.5144C85.2607 22.2699 84.8008 22.1477 84.2705 22.1477C83.6863 22.1477 83.1809 22.2927 82.7542 22.5827C82.3316 22.8686 82.0064 23.2415 81.7785 23.7013C81.5506 24.1612 81.4367 24.6542 81.4367 25.1804V26.0256C81.4367 26.7464 81.561 27.3575 81.8096 27.8588C82.0623 28.356 82.4124 28.7351 82.8598 28.9961C83.3073 29.253 83.8272 29.3814 84.4197 29.3814C84.805 29.3814 85.153 29.3275 85.4637 29.2198C85.7786 29.108 86.0499 28.9422 86.2778 28.7227C86.5057 28.4989 86.6817 28.2214 86.806 27.8899L88.2229 28.2876C88.0738 28.7682 87.8231 29.1908 87.471 29.5554C87.1188 29.9158 86.6838 30.1976 86.1659 30.4006C85.6481 30.5994 85.066 30.6989 84.4197 30.6989ZM94.5044 20.9545V22.1974H89.5576V20.9545H94.5044ZM90.9994 18.6676H92.466V27.7656C92.466 28.1799 92.5261 28.4906 92.6462 28.6978C92.7705 28.9008 92.9279 29.0375 93.1185 29.108C93.3132 29.1742 93.5183 29.2074 93.7338 29.2074C93.8953 29.2074 94.0279 29.1991 94.1315 29.1825C94.2351 29.1618 94.3179 29.1452 94.3801 29.1328L94.6784 30.4503C94.5789 30.4876 94.4401 30.5249 94.262 30.5621C94.0838 30.6036 93.858 30.6243 93.5846 30.6243C93.1703 30.6243 92.7643 30.5352 92.3666 30.3571C91.973 30.1789 91.6457 29.9076 91.3847 29.543C91.1278 29.1784 90.9994 28.7185 90.9994 28.1634V18.6676Z" fill="white"/>
<rect x="0.5" y="0.5" width="105" height="39" rx="4.5" stroke="#A6A6A6"/>
<defs>
<clipPath id="clip0_101_8005">
<rect width="24" height="24" fill="white" transform="translate(8 8)"/>
</clipPath>
</defs>
</svg>

<svg xmlns="http://www.w3.org/2000/svg" width="106" height="40" fill="none" viewBox="0 0 106 40">
  <rect width="105" height="39" x=".5" y=".5" fill="#000" rx="4.5"/>
  <rect width="105" height="39" x=".5" y=".5" stroke="#A6A6A6" rx="4.5"/>
  <g clip-path="url(#a)">
    <path fill="#FFCE00" d="M20 32c6.627 0 12-5.373 12-12S26.627 8 20 8 8 13.373 8 20s5.373 12 12 12Z"/>
    <path fill="#004A93" d="M23.158 11.221a.54.54 0 0 0-.442 0 .761.761 0 0 0-.316.316.54.54 0 0 0 0 .442.76.76 0 0 0 .316.316c3.031 1.263 4.99 4.168 4.99 7.452a8.06 8.06 0 0 1-8.085 8.084.633.633 0 0 0-.631.632c0 .379.252.632.631.632 5.116 0 9.284-4.169 9.284-9.285 0-3.789-2.21-7.136-5.747-8.589Z"/>
    <path fill="#004A93" d="M19.621 25.874c3.348 0 6.126-2.716 6.126-6.127 0-3.41-2.715-6.063-6.126-6.063a.633.633 0 0 0-.631.632c0 .316.252.631.631.631a4.865 4.865 0 0 1 4.863 4.863c0 2.653-2.21 4.864-4.863 4.864a.633.633 0 0 0-.631.631c.063.316.315.569.631.569Z"/>
    <path fill="#004A93" d="M20.884 21.2a.573.573 0 0 0-.19.442c0 .19.064.316.19.442.127.127.253.19.442.19.127 0 .316-.063.38-.19.63-.568.947-1.39.947-2.21 0-1.705-1.39-3.095-3.032-3.095a.633.633 0 0 0-.631.632c0 .379.252.631.631.631 1.01 0 1.832.821 1.832 1.832.063.442-.127.947-.569 1.326Z"/>
  </g>
  <path fill="#fff" d="M39.749 14.5V8.318h.748v5.518h2.874v.664h-3.622Zm4.684 0V9.864h.713V14.5h-.713Zm.362-5.41a.506.506 0 0 1-.359-.141.456.456 0 0 1-.148-.341c0-.133.05-.247.148-.341.1-.095.22-.142.36-.142.138 0 .257.047.356.142.1.094.15.208.15.341 0 .133-.05.246-.15.341a.496.496 0 0 1-.357.142Zm4.94 1.812-.64.181c-.04-.107-.1-.21-.179-.31a.865.865 0 0 0-.313-.254 1.14 1.14 0 0 0-.51-.1c-.284 0-.52.065-.71.196-.187.129-.28.293-.28.492a.51.51 0 0 0 .192.42c.13.102.33.188.604.256l.688.17c.415.1.724.254.927.461.203.206.305.47.305.794 0 .266-.077.503-.23.713-.15.209-.362.374-.633.495a2.33 2.33 0 0 1-.948.18c-.473 0-.864-.102-1.174-.307-.31-.205-.506-.505-.589-.9l.676-.169c.065.25.186.437.365.562.182.124.418.187.71.187.332 0 .595-.07.79-.211.198-.143.296-.314.296-.514a.54.54 0 0 0-.169-.404c-.112-.11-.285-.193-.519-.248l-.773-.18c-.424-.101-.736-.257-.935-.469a1.133 1.133 0 0 1-.296-.8c0-.261.073-.493.22-.694a1.5 1.5 0 0 1 .607-.474 2.13 2.13 0 0 1 .875-.172c.46 0 .82.1 1.081.302.264.201.45.467.561.797Zm3.173-1.038v.603h-2.403v-.603h2.403Zm-1.703-1.111h.712v4.419c0 .201.03.352.088.453.06.098.137.165.23.199a.92.92 0 0 0 .298.048c.079 0 .143-.004.194-.012l.12-.024.145.64a1.491 1.491 0 0 1-.531.085c-.201 0-.399-.044-.592-.13a1.177 1.177 0 0 1-.477-.396c-.125-.177-.187-.4-.187-.67V8.753Zm4.668 5.844c-.447 0-.832-.099-1.156-.296a1.99 1.99 0 0 1-.745-.833c-.174-.358-.26-.775-.26-1.25s.086-.893.26-1.256c.175-.364.418-.648.73-.85.314-.206.68-.309 1.099-.309.241 0 .48.04.715.121.236.08.45.211.643.392.193.18.347.417.462.713.115.296.172.66.172 1.092v.302h-3.574v-.616h2.85a1.52 1.52 0 0 0-.157-.7 1.183 1.183 0 0 0-.441-.486 1.234 1.234 0 0 0-.67-.178c-.284 0-.53.07-.737.212a1.39 1.39 0 0 0-.474.543c-.11.223-.166.463-.166.718v.41c0 .35.06.648.181.891.123.242.293.426.51.553.218.124.47.187.758.187.187 0 .356-.027.507-.079.153-.054.285-.135.396-.241.11-.109.196-.244.256-.405l.689.193a1.526 1.526 0 0 1-.366.616 1.78 1.78 0 0 1-.634.41 2.35 2.35 0 0 1-.848.146Zm3.716-2.886V14.5h-.712V9.864h.688v.724h.06a1.33 1.33 0 0 1 .495-.567c.222-.145.507-.218.858-.218.313 0 .588.065.823.193.236.127.42.32.55.58.13.258.196.584.196.978V14.5h-.712v-2.898c0-.364-.095-.648-.284-.85-.19-.206-.449-.309-.779-.309-.227 0-.43.05-.61.148a1.058 1.058 0 0 0-.42.432 1.43 1.43 0 0 0-.153.688Zm8.534 2.886c-.419 0-.786-.1-1.102-.3a2.018 2.018 0 0 1-.736-.835c-.175-.358-.263-.777-.263-1.256 0-.483.088-.905.263-1.265.177-.36.422-.64.736-.839.316-.2.683-.299 1.102-.299.418 0 .785.1 1.099.3.316.198.561.478.736.838.177.36.266.782.266 1.265 0 .479-.089.898-.266 1.256-.175.358-.42.636-.736.836a2.01 2.01 0 0 1-1.1.299Zm0-.64c.318 0 .58-.082.785-.245a1.44 1.44 0 0 0 .456-.643 2.47 2.47 0 0 0 .147-.863c0-.31-.049-.599-.147-.866a1.46 1.46 0 0 0-.456-.65c-.206-.164-.467-.247-.785-.247s-.58.083-.785.248a1.46 1.46 0 0 0-.456.649 2.487 2.487 0 0 0-.148.866c0 .31.05.598.148.863.099.266.25.48.456.643.205.163.467.245.785.245Zm3.9-2.246V14.5h-.712V9.864H72v.724h.06c.11-.235.274-.424.496-.567.221-.145.507-.218.857-.218.314 0 .589.065.824.193a1.3 1.3 0 0 1 .55.58c.13.258.196.584.196.978V14.5h-.713v-2.898c0-.364-.094-.648-.284-.85-.189-.206-.448-.309-.778-.309-.228 0-.43.05-.61.148a1.059 1.059 0 0 0-.42.432 1.43 1.43 0 0 0-.154.688Zm-25.522 9.243a1.95 1.95 0 0 0-.907-1.466c-.53-.348-1.18-.522-1.951-.522-.564 0-1.057.091-1.48.273-.418.183-.745.433-.981.752a1.802 1.802 0 0 0-.348 1.088c0 .34.08.632.242.876.166.24.377.441.634.603.257.157.526.288.808.391.282.1.54.18.777.243l1.292.348c.332.087.7.207 1.106.36.41.154.802.363 1.175.628.377.26.688.597.932 1.007.245.41.367.913.367 1.51a3.35 3.35 0 0 1-.54 1.864c-.357.555-.88.997-1.567 1.324-.683.327-1.514.49-2.492.49-.911 0-1.7-.146-2.367-.44-.663-.295-1.185-.705-1.567-1.231-.377-.526-.59-1.137-.64-1.833h1.591c.042.48.203.878.485 1.193.286.31.646.543 1.081.696.44.15.912.224 1.417.224a4.17 4.17 0 0 0 1.585-.286c.468-.195.839-.464 1.112-.808a1.91 1.91 0 0 0 .41-1.218c0-.423-.118-.767-.354-1.032a2.6 2.6 0 0 0-.932-.646 9.782 9.782 0 0 0-1.25-.435l-1.565-.448c-.994-.285-1.782-.693-2.362-1.224-.58-.53-.87-1.224-.87-2.082 0-.712.193-1.334.578-1.864.39-.534.912-.949 1.566-1.243.66-.298 1.394-.447 2.207-.447.82 0 1.549.147 2.187.44.638.291 1.143.689 1.516 1.194.377.506.576 1.08.597 1.721H46.5ZM54.13 30.7c-.862 0-1.618-.205-2.268-.615-.647-.41-1.152-.984-1.517-1.722-.36-.737-.54-1.599-.54-2.585 0-.994.18-1.862.54-2.604.365-.741.87-1.317 1.517-1.727.65-.41 1.406-.616 2.268-.616.862 0 1.616.205 2.262.616.65.41 1.156.985 1.516 1.727.365.742.547 1.61.547 2.604 0 .986-.182 1.848-.547 2.585-.36.738-.866 1.312-1.516 1.722-.646.41-1.4.615-2.262.615Zm0-1.318c.654 0 1.193-.167 1.616-.503.422-.336.735-.777.938-1.324a5.063 5.063 0 0 0 .305-1.777 5.12 5.12 0 0 0-.305-1.784 3.006 3.006 0 0 0-.938-1.336c-.423-.34-.962-.51-1.616-.51-.655 0-1.193.17-1.616.51-.422.34-.735.785-.938 1.336a5.12 5.12 0 0 0-.305 1.784c0 .638.102 1.23.305 1.777.203.547.516.988.938 1.324.423.336.961.503 1.616.503Zm7.78-4.623V30.5h-1.466v-9.546h1.417v1.492h.124a2.726 2.726 0 0 1 1.02-1.168c.455-.299 1.043-.448 1.764-.448.646 0 1.212.133 1.697.398.485.261.862.659 1.13 1.193.27.53.405 1.202.405 2.014V30.5h-1.467v-5.966c0-.75-.195-1.334-.584-1.752-.39-.423-.924-.634-1.603-.634a2.56 2.56 0 0 0-1.256.304 2.19 2.19 0 0 0-.864.889c-.21.39-.316.862-.316 1.417Zm9.987 0V30.5h-1.466v-9.546h1.417v1.492h.124a2.726 2.726 0 0 1 1.02-1.168c.455-.299 1.043-.448 1.764-.448.646 0 1.212.133 1.697.398.484.261.861.659 1.13 1.193.27.53.404 1.202.404 2.014V30.5h-1.466v-5.966c0-.75-.195-1.334-.584-1.752-.39-.423-.924-.634-1.604-.634-.468 0-.886.101-1.255.304-.365.203-.652.5-.864.889-.211.39-.317.862-.317 1.417Zm12.523 5.94c-.92 0-1.713-.202-2.38-.608a4.087 4.087 0 0 1-1.536-1.715c-.356-.738-.534-1.595-.534-2.573s.178-1.84.534-2.585c.361-.75.862-1.334 1.504-1.753.647-.422 1.4-.634 2.263-.634.497 0 .988.083 1.472.249a3.65 3.65 0 0 1 1.324.808c.398.368.715.857.95 1.466.237.61.355 1.36.355 2.25v.621h-7.358v-1.267h5.867c0-.539-.108-1.02-.324-1.442a2.435 2.435 0 0 0-.907-1c-.39-.245-.85-.367-1.38-.367-.584 0-1.09.145-1.516.435a2.862 2.862 0 0 0-.976 1.118c-.227.46-.341.953-.341 1.48v.845c0 .72.124 1.332.373 1.833a2.69 2.69 0 0 0 1.05 1.137c.447.257.967.385 1.56.385.385 0 .733-.053 1.044-.161.315-.112.586-.278.814-.497a2.26 2.26 0 0 0 .528-.833l1.417.398c-.15.48-.4.903-.752 1.267a3.67 3.67 0 0 1-1.305.846c-.518.198-1.1.298-1.746.298Zm10.084-9.744v1.243h-4.946v-1.242h4.946ZM91 18.668h1.467v9.098c0 .414.06.725.18.932.124.203.282.34.472.41.195.066.4.1.616.1.161 0 .294-.009.398-.025l.248-.05.298 1.317c-.1.038-.238.075-.416.112a3.062 3.062 0 0 1-.677.062c-.415 0-.82-.089-1.218-.267a2.42 2.42 0 0 1-.982-.814c-.257-.365-.386-.825-.386-1.38v-9.495Z"/>
  <defs>
    <clipPath id="a">
      <path fill="#fff" d="M8 8h24v24H8z"/>
    </clipPath>
  </defs>
</svg>
